X:1
T: Mr. Riley
C:
R:Jig
Q:180
K:D
M:6/8
L:1/16
|:D2E2D2 F4A2|d4f2 e4g2|f2d2f2 e2c2A2|d2f2d2 e2c2A2|
D2E2D2 F4A2|d4f2 e4g2|f2a2f2 g2e2c2|d6-d4A2:|
|:d4e2 f2e2d2|g4g2 g4f2|e4f2 g2f2e2|a4a2 a4g2|
f2d2f2 e2c2A2|d2f2d2 e2c2A2|f2a2f2 g2e2c2|1d6-d4A2:|2d6-d6||
